X: 159
T: Down by the Old Mill
N:"Moderate" "collected by J. O'Neill"
B:O'Neill's 159
Z:Transcribed by henrik.norbeck@mailbox.swipnet.se
M:C
L:1/8
K:G
G>A|B2 d2 e3 d|eg/f/ ed B2 GA|B2 d2 g>e dB|A6 G>A|
B2 d2 g2 b2|agfe g2 f>e|d2 BG A2 A2|G6||
g2|f>ede fgaf|gfed d3 g|fgab gfed|g6 ge|
dBAG G2 G>A|Bg a/g/f/g/ e2 f>e|d2 BG A2 A2|G6||


